X: 6777
T: Chapel Bell, The
R: jig
M: 6/8
K: Ddorian
|:G|A2 D DEG|AGE c2 e|dcA AGE|c2 d cAG|
A2 D DEG|AGE cGe|dcA AGE|GED D2:|
G|A2 d ded|cde g2 e|dcA AGE|c2 e dcA|
A2 d ded|cde g2 e|dcA AGE|GED D2 G|
A2 d ded|cde ged|dcA AGE|cGe dcA|
Add d^cd|cde a3|edc AGE|D3 D2||

